X:1
T:Alstyne, 76.76 D
T:William Howard Doane, 1875
T:Alstyne, 76.76 D
T:Public Domain
C:William Howard Doane, 1875
Z:Public Domain
%%score ( 1 2 ) ( 3 4 )
L:1/8
M:4/4
K:G
V:1 treble 
V:2 treble 
V:3 bass 
V:4 bass 
V:1
 [B,D]2 | [B,D]3 [CE] [B,D]2 [DG]2 | [DG]4 [DF]2 [DF]2 | [DG]2 [DG]2 [Dc]2 [DB]2 | D6 (Bc) | %5
 [Dd]3 [GB] [DA]2 [DG]2 | [EG]4 [CE]2 [CE]2 | [B,D]2 [DG]2 [DF]2 (EF) | [B,G]6 D2 | %9
 [Bd]3 [Bd] [Bd]2 ([Ac][GB]) | [FA]4 D2 D2 | [FA]3 [FA] [FA]2 (G[FA]) | [GB]6 (Bc) | %13
 [Gd]3 [GB] [DA]2 [DG]2 | [EG]4 [CE]2 [CE]2 | [B,D]2 [DG]2 [DF]2 (EF) | [B,G]6 |] %17
V:2
 x2 | x8 | x8 | x8 | D6 D2 | x8 | x8 | x6 C2 | x6 D2 | x8 | x4 D2 D2 | x8 | x6 G2 | x8 | x8 | %15
 x6 C2 | x6 |] %17
V:3
 [G,,G,]2 | [G,,G,]3 [G,,G,] [G,,G,]2 [B,,G,]2 | [D,B,]4 [D,A,]2 [C,A,]2 | %3
 [B,,G,]2 [B,,G,]2 [A,,F,]2 [G,,G,]2 | [D,F,]6 (G,A,) | [G,B,]3 [G,D] [G,C]2 [G,B,]2 | %6
 [C,C]4 [C,G,]2 [C,G,]2 | [D,G,]2 [D,B,]2 [D,A,]2 [D,A,]2 | [G,,G,]6 [D,D]2 | %9
 [D,D]3 [D,D] [D,D]2 [D,D]2 | [D,D]4 [D,D]2 [D,D]2 | [D,D]3 [D,D] [D,C]2 (B,D) | [G,D]6 (G,A,) | %13
 [G,B,]3 [G,D] [G,C]2 [G,B,]2 | [C,C]4 [C,G,]2 [C,G,]2 | [D,G,]2 [D,B,]2 [D,A,]2 [D,A,]2 | %16
 [G,,G,]6 |] %17
V:4
 x2 | x8 | x8 | x8 | x6 G,2 | x8 | x8 | x8 | x8 | x8 | x8 | x6 D,2 | x6 G,2 | x8 | x8 | x8 | x6 |] %17

